icon-themes/breeze_svg/cmd/ca/lc_italic.svg

<svg viewBox="0 0 24 24" xmlns="http://www.w3.org/2000/svg"><path d="m13.363281 4c-1.162293 0-2.252371.2269697-3.271484.6796875-1.0191125.4527178-1.9079982 1.088181-2.6660158 1.90625-1.5990211 1.7556544-2.359184 4.1609005-2.4257812 6.6835935 0 .984859.1347796 1.888832.4042969 2.714844.2779398.826011.6737326 1.537132 1.1875 2.132813.5137675.595682 1.1416398 1.060949 1.8828125 1.394531.7495951.325639 1.5957526.488281 2.5390626.488281 1.195983 0 2.248582-.202358 3.158203-.607422.918043-.413005 1.723423-.993647 2.414063-1.740234l-.796876-.904297c-.042111-.079426-.134162-.119141-.277343-.119141-.126336 0-.278207.083209-.455078.25-.176871.158848-.417496.336595-.720703.535156-.303208.19856-.690455.382038-1.16211.548829-.471655.158852-1.065345.238281-1.78125.238281-5.0158086-.607839-5.3926161-6.761818-2.4003905-10.4121095.5390347-.6353933 1.1702035-1.1195435 1.8945315-1.453125.73275-.3415239 1.51579-.5136719 2.349609-.5136719.412699 0 .776262.0359402 1.087891.1074219.311629.0635393.581188.1467485.808593.25.227405.1032514.420052.2148481.580079.3339844.160025.1111939.300054.2190142.417968.3222656.126336.1032514.235478.1902368.328125.2617187.092647.063539.184694.0957032.277344.0957032.117913 0 .215216-.0246107.291016-.0722656.075804-.0476547.147464-.1062524.214844-.1777344l.757812-.8710938c-.252672-.3176967-.534074-.6032645-.845703-.8574218-.303208-.2620999-.64443-.4795638-1.023438-.6542969-.370586-.1826757-.78347-.3226598-1.238281-.4179688-.454809-.0953085-.964994-.1425781-1.529297-.1425781z" fill="#4d4d4d"/></svg>

<svg xmlns="http://www.w3.org/2000/svg" viewBox="0 0 24 24">
  <path
     style="fill:#4d4d4d"
     d="M 13.363281 4 C 12.200988 4 11.11091 4.2269697 10.091797 4.6796875 C 9.0726845 5.1324053 8.1837988 5.7678685 7.4257812 6.5859375 C 5.8267601 8.3415919 5.0665972 10.746838 5 13.269531 C 5 14.25439 5.1347796 15.158363 5.4042969 15.984375 C 5.6822367 16.810386 6.0780295 17.521507 6.5917969 18.117188 C 7.1055644 18.71287 7.7334367 19.178137 8.4746094 19.511719 C 9.2242045 19.837358 10.070362 20 11.013672 20 C 12.209655 20 13.262254 19.797642 14.171875 19.392578 C 15.089918 18.979573 15.895298 18.398931 16.585938 17.652344 L 15.789062 16.748047 C 15.746951 16.668621 15.6549 16.628906 15.511719 16.628906 C 15.385383 16.628906 15.233512 16.712115 15.056641 16.878906 C 14.87977 17.037754 14.639145 17.215501 14.335938 17.414062 C 14.03273 17.612622 13.645483 17.7961 13.173828 17.962891 C 12.702173 18.121743 12.108483 18.201172 11.392578 18.201172 C 6.3767694 17.593333 5.9999619 11.439354 8.9921875 7.7890625 C 9.5312222 7.1536692 10.162391 6.669519 10.886719 6.3359375 C 11.619469 5.9944136 12.402509 5.8222656 13.236328 5.8222656 C 13.649027 5.8222656 14.01259 5.8582058 14.324219 5.9296875 C 14.635848 5.9932268 14.905407 6.076436 15.132812 6.1796875 C 15.360217 6.2829389 15.552864 6.3945356 15.712891 6.5136719 C 15.872916 6.6248658 16.012945 6.7326861 16.130859 6.8359375 C 16.257195 6.9391889 16.366337 7.0261743 16.458984 7.0976562 C 16.551631 7.1611952 16.643678 7.1933594 16.736328 7.1933594 C 16.854241 7.1933594 16.951544 7.1687487 17.027344 7.1210938 C 17.103148 7.0734391 17.174808 7.0148414 17.242188 6.9433594 L 18 6.0722656 C 17.747328 5.7545689 17.465926 5.4690011 17.154297 5.2148438 C 16.851089 4.9527439 16.509867 4.73528 16.130859 4.5605469 C 15.760273 4.3778712 15.347389 4.2378871 14.892578 4.1425781 C 14.437769 4.0472696 13.927584 4 13.363281 4 z "
     />
</svg>
